X: 1
T: Kneebuckle, The
M: 6/8
L: 1/8
R: jig
K: Dmaj
dee fdd | edd fdd | dee fdd | edB B3 | dee fdd | edd fdd | def gfe |
 fdB B3 :|
eAA eAA | efe edB | eAA efe | dBA a3 | eAA eAA | efe edB | def gfe | dBA
 A3 :|
aba gag | fgf ecA | aba gag | dcB A3 | aba gag | fgf ecA | def gfe | dBA
 A3 :|
